message-flash.svg

<svg fill="currentColor" viewBox="0 0 24 24"><path d="M22 4c0-1.1-.9-2-2-2H4c-1.1 0-2 .9-2 2v18l4-4h9v-8h7zm.5 12h-2.2l1.7-4h-5v6h2v5z"/></svg>

<svg  viewBox="0 0 24 24" fill="currentColor"><path  d="M22 4C22 2.9 21.1 2 20 2H4C2.9 2 2 2.9 2 4V22L6 18H15V10H22V4M22.5 16H20.3L22 12H17V18H19V23L22.5 16Z"/></svg>
